icons/svg/upload.svg

﻿<?xml version="1.0" encoding="utf-8"?>
<!DOCTYPE svg PUBLIC "-//W3C//DTD SVG 1.1//EN" "http://www.w3.org/Graphics/SVG/1.1/DTD/svg11.dtd">
<svg xmlns="http://www.w3.org/2000/svg" xmlns:xlink="http://www.w3.org/1999/xlink" version="1.1" baseProfile="full" width="24" height="24" viewBox="0 0 24.00 24.00" enable-background="new 0 0 24.00 24.00" xml:space="preserve">
	<path fill="#000000" fill-opacity="1" stroke-width="0.2" stroke-linejoin="round" d="M 8.99939,15.998L 8.99939,9.99805L 4.99939,9.99805L 11.9994,2.99805L 18.9994,9.99805L 14.9994,9.99805L 14.9994,15.998L 8.99939,15.998 Z M 4.99937,19.9981L 4.99937,17.9981L 18.9994,17.9981L 18.9994,19.9981L 4.99937,19.9981 Z "/>
</svg>

<svg xmlns="http://www.w3.org/2000/svg" version="1.1" baseProfile="full" width="24" height="24" viewBox="0 0 24.00 24.00" xml:space="preserve"><path fill="#000" fill-opacity="1" stroke-width=".2" stroke-linejoin="round" d="M9 15.998v-6H5l7-7 7 7h-4v6H9zm-4 4v-2h14v2H5z"/></svg>
